static/img/olake/speed-up-line.svg

<svg width="40" height="40" viewBox="0 0 40 40" fill="none" xmlns="http://www.w3.org/2000/svg">
<path d="M33.332 21.6667C33.332 25.3485 31.8397 28.6818 29.4269 31.0948L31.7839 33.4518C34.7999 30.4357 36.6654 26.269 36.6654 21.6667C36.6654 12.4619 29.2034 5 19.9987 5C10.7939 5 3.33203 12.4619 3.33203 21.6667C3.33203 26.269 5.19751 30.4357 8.21358 33.4518L10.5706 31.0948C8.15775 28.6818 6.66536 25.3485 6.66536 21.6667C6.66536 14.3029 12.6349 8.33333 19.9987 8.33333C27.3625 8.33333 33.332 14.3029 33.332 21.6667ZM25.487 13.8216L17.987 21.3217L20.344 23.6787L27.844 16.1786L25.487 13.8216Z" fill="white"/>
</svg>

<svg xmlns="http://www.w3.org/2000/svg" width="40" height="40" fill="none" viewBox="0 0 40 40"><path fill="#fff" d="M33.332 21.667c0 3.682-1.492 7.015-3.905 9.428l2.357 2.357a16.61 16.61 0 0 0 4.881-11.785C36.665 12.462 29.203 5 20 5S3.332 12.462 3.332 21.667c0 4.602 1.866 8.769 4.882 11.785l2.357-2.357a13.3 13.3 0 0 1-3.906-9.428c0-7.364 5.97-13.334 13.334-13.334s13.333 5.97 13.333 13.334m-7.845-7.845-7.5 7.5 2.357 2.357 7.5-7.5z"/></svg>
